!! 00000] TT[WS
!!!OTL: Leidandan haobi shui tuichuan
!!!ARE: Asia, China,ÿShanxi Hequ
!! Ethnic Group: Han
!! WI, 17 (2)
!!!SCT: J0019
!!!YEM: Copyright 1995, estate of Helmut Schaffrath.
**kern
*ICvox
*Ivox
*M2/4
*k[f#c#g#]
*A:
{8.ee
16cc#
8ff#
8aa
=1
8ee
8ff#
8cc#
16b
16b
=2
4cc#
8f#
8a
=3
2b}
=4
{8.ee
16cc#
8ff#
8aa
=5
8ee
8ff#
8cc#
16b
16b
=6
4cc#
8f#
8a
=7
2e}
==
!!!AGN: Shange, Shanqu. Qingge
!!!ONB: ESAC (Essen Associative Code) Database: CHINA
!!!AMT: simple duple
!!!AIN: vox
!!!EED: Helmut Schaffrath
!!!EEV: 1.0
*-
